public/topics/6.svg

<svg width="250" height="250" viewBox="0 0 250 250" fill="none" xmlns="http://www.w3.org/2000/svg">
<rect width="250" height="250" rx="30" fill="#993300"/>
<path d="M134.8 89C130.267 90.7333 126.4 93 123.2 95.8C120 98.4667 117.133 101.733 114.6 105.6L111.4 110.6C109 114.2 107.2 117.133 106 119.4C104.8 121.667 104 124.067 103.6 126.6C110.133 119.933 119.467 116.6 131.6 116.6C136.8 116.6 142.267 118.067 148 121C153.867 123.933 158.6 127.333 162.2 131.2C164.467 133.733 166.333 137.6 167.8 142.8C169.4 148 170.2 153.533 170.2 159.4C170.2 164.067 168.8 168.867 166 173.8C163.2 178.6 159.733 182.8 155.6 186.4C151.6 190 147.867 192.267 144.4 193.2C139.067 194.533 134.467 195.2 130.6 195.2C121.8 195.2 113.667 192.8 106.2 188C98.7333 183.2 92.8 176.8 88.4 168.8C84 160.667 81.8 151.867 81.8 142.4C81.8 129.333 84.9333 116.867 91.2 105C97.6 93 106 83.2667 116.4 75.8C118.133 74.6 121.2 73.3333 125.6 72C130.133 70.5333 134.133 69.8 137.6 69.8C144.133 69.8 147.4 72.4 147.4 77.6C147.4 80.6667 146.267 83.0667 144 84.8C141.867 86.5333 138.8 87.9333 134.8 89ZM126.8 176.8C129.867 176.8 132.467 176.667 134.6 176.4C136.733 176 138.667 175.267 140.4 174.2C143.067 172.333 145.4 170.133 147.4 167.6C149.533 164.933 150.6 162.4 150.6 160C150.6 150.8 148.333 144.333 143.8 140.6C139.4 136.867 134.2 134.933 128.2 134.8C125.133 134.8 121.6 135.667 117.6 137.4C113.733 139 110.4 141.133 107.6 143.8C104.933 146.467 103.6 149.067 103.6 151.6C103.6 157.333 104.8 162.133 107.2 166C109.733 169.733 112.8 172.467 116.4 174.2C120 175.933 123.467 176.8 126.8 176.8Z" fill="white"/>
</svg>

<svg xmlns="http://www.w3.org/2000/svg" width="250" height="250" fill="none" viewBox="0 0 250 250"><rect width="250" height="250" fill="#930" rx="30"/><path fill="#fff" d="M134.8 89q-6.8 2.6-11.6 6.8-4.8 4-8.6 9.8l-3.2 5q-3.6 5.4-5.4 8.8t-2.4 7.2q9.8-10 28-10 7.8 0 16.4 4.4 8.8 4.4 14.2 10.2 3.4 3.8 5.6 11.6 2.4 7.8 2.4 16.6 0 7-4.2 14.4-4.2 7.2-10.4 12.6-6 5.4-11.2 6.8-8 2-13.8 2-13.2 0-24.4-7.2t-17.8-19.2q-6.6-12.2-6.6-26.4 0-19.6 9.4-37.4 9.6-18 25.2-29.2 2.6-1.8 9.2-3.8 6.8-2.2 12-2.2 9.8 0 9.8 7.8 0 4.6-3.4 7.2-3.2 2.6-9.2 4.2m-8 87.8q4.6 0 7.8-.4 3.2-.6 5.8-2.2 4-2.8 7-6.6 3.2-4 3.2-7.6 0-13.8-6.8-19.4-6.6-5.6-15.6-5.8-4.6 0-10.6 2.6-5.8 2.4-10 6.4-4 4-4 7.8 0 8.6 3.6 14.4 3.8 5.6 9.2 8.2t10.4 2.6"/></svg>
